X:1
T:Inisheer $1(Traditional Irish)
C: W-55
%%scale .9
K:G
L:1/8
M:3/4
R: Waltz
"G"B2 BA B<d|B2 BA B<d|"C"E3 B AB|"D"D3 B AG|
"G"B2 BA B<d|B2 BA B<d|"C"E3 B "D"A/G/F|[1 "G"G3 D3:|[2"G"G3 A Bd||
|:"C"e2 ef ed|"Bm"B2 BA Bd|"Em"gf ed B/c/d|"C"e3 d B<d|"Am7"e3  d e<g|
"G"B3 B AB/A/|"C"G3 B "D"A/G/F|[1"G"G3 A Bd:|[2"G"G3 D3|]["Final""G"G6|]
%%scale .8
%%text Alt. chords: G|Em7|Cmaj7|D|G|Em7|Cmaj7 D|G:|
%%text \ \ \ \ \ \ \ \ \ \ \ \ |:Cmaj7 D|Em7|Am Bm|Cmaj7|C D|G|Cmaj7 D7|G:|
%%scale .5
%%text 4/25/13 For use only by Roaring Jelly members



%font Helvetica-Narrow
#include "RightHeader.h"
%%footer 05/20/14 For use only by Roaring Jelly members
% ---------- set 1 ----------
% Westfork Gals (D) / Planxty George Brabazon (G) / Swinging on a Gate (G)
%%text Set 1
%%vskip -1cm
%%scale .76
